source/img/sprite/boots.svg

<svg width="22" height="22" viewBox="0 0 22 22" fill="none" xmlns="http://www.w3.org/2000/svg">
<path d="M20.7153 14.2434C21.3367 12.1487 20.8254 9.77108 20.2821 8.12359C20.2785 8.05985 20.2602 7.99807 20.2288 7.94394C20.0442 7.40879 19.8737 6.96921 19.7281 6.65194C19.9961 6.53708 20.1729 6.25909 20.1755 5.94861V2.76449C20.1755 2.34225 19.8576 2 19.4654 2H10.7408C10.5447 1.99962 10.3854 2.17043 10.3851 2.38158C10.3851 2.38946 10.3853 2.39735 10.3857 2.40518C10.5064 4.69866 10.3502 6.25441 9.89923 7.35146C9.89026 7.36235 9.88196 7.37386 9.87437 7.38586C9.87304 7.40492 9.87304 7.42413 9.87437 7.44319C9.70224 7.84255 9.46943 8.20812 9.1855 8.52495L9.15354 8.54789C9.15354 8.54789 9.15354 8.54789 9.15354 8.57465C8.73724 9.00205 8.25711 9.35094 7.73318 9.60671C6.82033 10.0427 5.88351 10.418 4.92796 10.7305L4.74687 10.7955C1.42677 11.9805 0.993564 14.1287 1.00067 15.2066C0.999778 15.2219 0.999778 15.2372 1.00067 15.2525V17.9817C1.0012 18.1146 1.06569 18.2376 1.17111 18.3066C1.9848 18.8396 2.86311 19.2486 3.78102 19.5222C3.9698 19.5793 4.1659 19.4609 4.21898 19.2577C4.22897 19.2194 4.23336 19.1797 4.23199 19.1399V19.052H4.75397V19.4343C4.75171 19.6236 4.87861 19.7862 5.05225 19.8165C5.36117 19.87 5.6701 19.9121 5.97193 19.9388C6.07082 19.9478 6.16869 19.9117 6.2418 19.8395C6.31486 19.7665 6.35609 19.6639 6.35543 19.5566V19.075H6.87741V19.6178C6.87741 19.8288 7.0364 20 7.2325 20C7.53077 20 7.82905 20 8.14863 19.9541C8.33359 19.9382 8.47589 19.7716 8.47531 19.5719V19.075H8.9973V19.4113C8.99477 19.6224 9.15167 19.7958 9.34777 19.7985C9.36832 19.7988 9.38887 19.7972 9.4092 19.7936C10.061 19.6861 10.7035 19.5212 11.3302 19.3005L11.3871 19.2737C13.8727 17.7447 15.4493 19.0023 15.5132 19.0559C15.5752 19.1076 15.6513 19.1358 15.7298 19.1361H16.1701C16.3662 19.1361 16.5252 18.965 16.5252 18.7539V18.1079H17.033V18.7462C17.033 18.9573 17.192 19.1285 17.3881 19.1285H18.5315C18.7276 19.1285 18.8866 18.9573 18.8866 18.7462V18.1079H19.4121V18.7462C19.4121 18.9573 19.5711 19.1285 19.7672 19.1285H20.6443C20.8404 19.1285 20.9993 18.9573 20.9993 18.7462V14.6256C21.0028 14.4411 20.8833 14.2803 20.7153 14.2434ZM12.289 2.77214H19.4476V5.93714H12.289V2.77214ZM7.8255 10.3941L7.82905 10.4171C8.12014 10.6715 8.38876 10.9543 8.63155 11.2618C8.56715 11.3771 8.53395 11.5095 8.53568 11.6441C8.53324 12.0473 8.83493 12.3763 9.20946 12.3789C9.58404 12.3815 9.88964 12.0568 9.89208 11.6536C9.89439 11.2737 9.62572 10.9555 9.27427 10.9216C9.04967 10.592 8.79379 10.2884 8.51082 10.0157C8.82814 9.8213 9.12668 9.59338 9.4021 9.33532C9.74649 9.68311 10.0669 10.0574 10.3608 10.4553C10.2373 10.836 10.4238 11.2523 10.7774 11.3854C11.131 11.5183 11.5178 11.3176 11.6414 10.9369C11.7649 10.5563 11.5784 10.1399 11.2248 10.0069C11.1515 9.97926 11.0742 9.96545 10.9965 9.96602H10.9112C10.5998 9.54393 10.2604 9.14663 9.89567 8.77724C10.0649 8.5529 10.2147 8.31238 10.3431 8.05861C10.8928 8.36665 11.4241 8.71135 11.9339 9.09068C11.9304 9.49811 12.2344 9.83143 12.6129 9.8352C12.9914 9.83897 13.301 9.51172 13.3045 9.1043C13.308 8.69687 13.004 8.36355 12.6255 8.35977C12.5174 8.35868 12.4106 8.38515 12.3138 8.43704C11.7773 8.046 11.2187 7.69113 10.6414 7.37439C11.0284 6.26587 11.1953 4.79422 11.1172 2.78743H11.5824V5.95243C11.5824 6.37467 11.9003 6.71693 12.2925 6.71693H18.9469C19.0392 6.91952 19.1955 7.27118 19.3659 7.72988H19.2203C17.0632 7.74665 15.3271 9.64269 15.3427 11.9648C15.3515 13.2844 15.9353 14.5229 16.9194 15.3098C14.0467 16.124 9.72523 17.0911 6.08911 16.8388C6.76023 13.9529 5.95773 12.1754 5.43574 11.3956C6.24859 11.1086 7.04634 10.7743 7.8255 10.3941ZM4.72201 11.6135C5.10551 12.099 6.10686 13.7312 5.37183 16.7318C4.09235 16.6235 2.84967 16.2193 1.7286 15.5468C1.71586 15.4595 1.70756 15.3714 1.70374 15.2831V15.2563C1.67534 14.4421 1.95941 12.68 4.72201 11.6135ZM20.1223 18.364V17.7256C20.1223 17.5145 19.9633 17.3434 19.7672 17.3434H18.535C18.3389 17.3434 18.1799 17.5145 18.1799 17.7256V18.364H17.7432V17.7256C17.7432 17.5145 17.5842 17.3434 17.3881 17.3434H16.163C15.9669 17.3434 15.8079 17.5145 15.8079 17.7256V18.3487C15.325 18.0238 13.5602 17.0796 11.0568 18.5857C10.6114 18.7439 10.1572 18.8716 9.69683 18.9679V18.7042C9.69683 18.4931 9.53783 18.3219 9.34173 18.3219H8.11667C7.92058 18.3219 7.76158 18.4931 7.76158 18.7042V19.2279H7.58049V18.6927C7.58049 18.4816 7.4215 18.3105 7.2254 18.3105H5.99323C5.79714 18.3105 5.63814 18.4816 5.63814 18.6927V19.1476L5.45705 19.1208V18.6927C5.45705 18.4816 5.29806 18.3105 5.10196 18.3105H3.86979C3.68919 18.3091 3.53637 18.4538 3.5147 18.6468C2.88446 18.4235 2.27757 18.1301 1.70374 17.7715V16.4031C3.25194 17.286 5.25465 17.6186 7.38519 17.6186C13.0453 17.6186 19.5222 15.2869 20.2856 15.0079L20.2892 18.364H20.1223ZM19.9483 14.3313C19.6465 14.4383 18.9043 14.7135 17.8781 15.0079C16.2894 14.1801 15.6248 12.1228 16.3937 10.4125C16.9197 9.24267 18.0132 8.49175 19.2203 8.47144C19.3603 8.46934 19.5003 8.47698 19.6394 8.49437L19.6429 8.50584C20.1649 10.1266 20.6336 12.4392 19.9483 14.3313Z" fill="#0266C1"/>
<path d="M13.6564 3.23469C13.0857 3.23469 12.6231 3.73271 12.6231 4.34703C12.625 4.96049 13.0865 5.45727 13.6564 5.45937C14.227 5.45937 14.6897 4.96135 14.6897 4.34703C14.6897 3.73271 14.2271 3.23469 13.6564 3.23469ZM13.6564 4.69487C13.4779 4.69487 13.3332 4.53916 13.3332 4.34703C13.3332 4.1549 13.4779 3.99918 13.6564 3.99918C13.8348 3.99918 13.9795 4.1549 13.9795 4.34703C13.9795 4.53916 13.8348 4.69487 13.6564 4.69487Z" fill="#0266C1"/>
</svg>

<svg viewBox="0 0 22 22" fill="none" xmlns="http://www.w3.org/2000/svg"><path d="M20.72 14.24c.62-2.1.1-4.47-.44-6.12a14.9 14.9 0 0 0-.55-1.47c.27-.11.44-.4.45-.7v-3.19c0-.42-.32-.76-.71-.76h-8.73c-.2 0-.35.17-.35.38v.03c.12 2.29-.04 3.84-.5 4.94l-.02.04v.05c-.17.4-.4.77-.68 1.08l-.04.03v.02c-.41.43-.9.78-1.42 1.04-.91.43-1.85.8-2.8 1.12l-.18.07c-3.32 1.18-3.76 3.33-3.75 4.4a.4.4 0 0 0 0 .05v2.73c0 .13.07.26.17.33.81.53 1.7.94 2.61 1.21.19.06.39-.06.44-.26a.41.41 0 0 0 .01-.12v-.09h.52v.38c0 .2.13.36.3.39.31.05.62.1.92.12.1 0 .2-.03.27-.1a.4.4 0 0 0 .12-.28v-.48h.52v.54c0 .2.16.38.35.38.3 0 .6 0 .92-.05.18-.01.33-.18.33-.38v-.5h.52v.34c0 .21.15.39.35.39h.06c.65-.11 1.3-.28 1.92-.5l.06-.03c2.48-1.53 4.06-.27 4.12-.21.07.05.14.08.22.08h.44c.2 0 .36-.18.36-.39v-.64h.5v.64c0 .2.16.38.36.38h1.14c.2 0 .36-.17.36-.38v-.64h.52v.64c0 .2.16.38.36.38h.87c.2 0 .36-.17.36-.38v-4.12a.38.38 0 0 0-.28-.39Zm-8.43-11.47h7.16v3.17h-7.16v-3.17Zm-4.46 7.62v.03c.29.25.56.53.8.84a.77.77 0 0 0-.1.38c0 .4.3.74.68.74.37 0 .68-.32.68-.73 0-.38-.26-.7-.62-.73a5.77 5.77 0 0 0-.76-.9c.32-.2.62-.43.9-.68.34.34.66.72.95 1.12-.12.38.06.8.42.93.35.13.74-.07.86-.45s-.06-.8-.42-.93a.63.63 0 0 0-.22-.04h-.09c-.31-.43-.65-.82-1.01-1.2.16-.22.31-.46.44-.71.55.3 1.08.65 1.6 1.03-.01.4.3.74.67.75.38 0 .7-.33.7-.74 0-.4-.3-.74-.68-.74a.72.72 0 0 0-.32.08c-.53-.4-1.1-.75-1.67-1.07.39-1.1.56-2.58.48-4.58h.46v3.16c0 .42.32.77.71.77h6.66c.09.2.25.55.42 1.01h-.15c-2.16.02-3.9 1.91-3.88 4.23.01 1.32.6 2.56 1.58 3.35-2.87.81-7.2 1.78-10.83 1.53.67-2.89-.13-4.66-.65-5.44.8-.3 1.6-.63 2.39-1Zm-3.1 1.22c.38.49 1.38 2.12.64 5.12a8.47 8.47 0 0 1-3.64-1.18 2.6 2.6 0 0 1-.03-.27v-.02c-.02-.82.26-2.58 3.02-3.65Zm15.4 6.75v-.63c0-.22-.17-.39-.36-.39h-1.23c-.2 0-.36.17-.36.39v.63h-.44v-.63c0-.22-.16-.39-.35-.39h-1.23c-.2 0-.35.17-.35.39v.62c-.49-.33-2.25-1.27-4.75.24-.45.15-.9.28-1.36.38v-.27c0-.2-.16-.38-.36-.38h-1.22c-.2 0-.36.17-.36.38v.53h-.18v-.54c0-.2-.16-.38-.35-.38h-1.24c-.2 0-.35.17-.35.38v.46l-.18-.03v-.43c0-.2-.16-.38-.36-.38h-1.23c-.18 0-.33.14-.36.34a9.24 9.24 0 0 1-1.8-.88v-1.37c1.54.89 3.54 1.22 5.68 1.22 5.66 0 12.13-2.33 12.9-2.61v3.35h-.17Zm-.18-4.03c-.3.1-1.05.38-2.07.68a3.56 3.56 0 0 1-1.49-4.6 3.19 3.19 0 0 1 3.25-1.92v.02c.52 1.62 1 3.93.3 5.82Z" fill="#0266C1"/><path d="M13.66 3.23c-.57 0-1.04.5-1.04 1.12 0 .61.47 1.1 1.04 1.1.57 0 1.03-.49 1.03-1.1 0-.62-.46-1.12-1.03-1.12Zm0 1.46a.34.34 0 0 1-.33-.34c0-.2.15-.35.33-.35.17 0 .32.15.32.35 0 .19-.15.34-.32.34Z" fill="#0266C1"/></svg>
